optimized/outline/key.svg

<svg xmlns="http://www.w3.org/2000/svg" fill="none" viewBox="0 0 24 24" stroke-width="2" stroke="currentColor" aria-hidden="true">
  <path stroke-linecap="round" stroke-linejoin="round" d="M15 7C16.1046 7 17 7.89543 17 9M21 9C21 12.3137 18.3137 15 15 15C14.3938 15 13.8087 14.9101 13.2571 14.7429L11 17H9V19H7V21H4C3.44772 21 3 20.5523 3 20V17.4142C3 17.149 3.10536 16.8946 3.29289 16.7071L9.25707 10.7429C9.08989 10.1914 9 9.60617 9 9C9 5.68629 11.6863 3 15 3C18.3137 3 21 5.68629 21 9Z"/>
</svg>

<svg xmlns="http://www.w3.org/2000/svg" fill="none" viewBox="0 0 24 24" stroke-width="2" stroke="currentColor" aria-hidden="true">
  <path stroke-linecap="round" stroke-linejoin="round" d="M15 7a2 2 0 012 2m4 0a6 6 0 01-7.743 5.743L11 17H9v2H7v2H4a1 1 0 01-1-1v-2.586a1 1 0 01.293-.707l5.964-5.964A6 6 0 1121 9z"/>
</svg>
